public/images/logo.svg

<svg id="site-logo" viewBox="0 0 423 100" fill="none" xmlns="http://www.w3.org/2000/svg">
<path class="logo" d="M80.1748 67.384C77.6468 67.384 75.1988 67 72.8308 66.232C70.4948 65.432 68.6548 64.408 67.3108 63.16L69.0868 59.416C70.3668 60.568 71.9988 61.512 73.9828 62.248C75.9988 62.952 78.0628 63.304 80.1748 63.304C82.9588 63.304 85.0388 62.84 86.4148 61.912C87.7908 60.952 88.4788 59.688 88.4788 58.12C88.4788 56.968 88.0948 56.04 87.3268 55.336C86.5908 54.6 85.6628 54.04 84.5428 53.656C83.4548 53.272 81.9028 52.84 79.8868 52.36C77.3588 51.752 75.3108 51.144 73.7428 50.536C72.2068 49.928 70.8788 49 69.7588 47.752C68.6708 46.472 68.1268 44.76 68.1268 42.616C68.1268 40.824 68.5908 39.208 69.5188 37.768C70.4788 36.328 71.9188 35.176 73.8388 34.312C75.7588 33.448 78.1428 33.016 80.9908 33.016C82.9748 33.016 84.9268 33.272 86.8468 33.784C88.7668 34.296 90.4148 35.032 91.7908 35.992L90.2068 39.832C88.7988 38.936 87.2948 38.264 85.6948 37.816C84.0948 37.336 82.5268 37.096 80.9908 37.096C78.2708 37.096 76.2228 37.592 74.8468 38.584C73.5028 39.576 72.8308 40.856 72.8308 42.424C72.8308 43.576 73.2148 44.52 73.9828 45.256C74.7508 45.96 75.6948 46.52 76.8148 46.936C77.9668 47.32 79.5188 47.736 81.4708 48.184C83.9988 48.792 86.0308 49.4 87.5668 50.008C89.1028 50.616 90.4148 51.544 91.5028 52.792C92.6228 54.04 93.1828 55.72 93.1828 57.832C93.1828 59.592 92.7028 61.208 91.7428 62.68C90.7828 64.12 89.3268 65.272 87.3748 66.136C85.4228 66.968 83.0228 67.384 80.1748 67.384ZM113.299 67.384C109.939 67.384 106.899 66.648 104.179 65.176C101.491 63.672 99.3793 61.624 97.8433 59.032C96.3073 56.408 95.5393 53.464 95.5393 50.2C95.5393 46.936 96.3073 44.008 97.8433 41.416C99.3793 38.792 101.507 36.744 104.227 35.272C106.947 33.768 109.987 33.016 113.347 33.016C115.971 33.016 118.371 33.464 120.547 34.36C122.723 35.224 124.579 36.52 126.115 38.248L122.995 41.272C120.467 38.616 117.315 37.288 113.539 37.288C111.043 37.288 108.787 37.848 106.771 38.968C104.755 40.088 103.171 41.64 102.019 43.624C100.899 45.576 100.339 47.768 100.339 50.2C100.339 52.632 100.899 54.84 102.019 56.824C103.171 58.776 104.755 60.312 106.771 61.432C108.787 62.552 111.043 63.112 113.539 63.112C117.283 63.112 120.435 61.768 122.995 59.08L126.115 62.104C124.579 63.832 122.707 65.144 120.499 66.04C118.323 66.936 115.923 67.384 113.299 67.384ZM153.507 67L146.259 56.68C145.363 56.744 144.659 56.776 144.147 56.776H135.843V67H131.043V33.4H144.147C148.499 33.4 151.923 34.44 154.419 36.52C156.915 38.6 158.163 41.464 158.163 45.112C158.163 47.704 157.523 49.912 156.243 51.736C154.963 53.56 153.139 54.888 150.771 55.72L158.739 67H153.507ZM144.003 52.696C147.043 52.696 149.363 52.04 150.963 50.728C152.563 49.416 153.363 47.544 153.363 45.112C153.363 42.68 152.563 40.824 150.963 39.544C149.363 38.232 147.043 37.576 144.003 37.576H135.843V52.696H144.003ZM185.406 58.6H167.55L163.854 67H158.91L174.126 33.4H178.878L194.142 67H189.102L185.406 58.6ZM183.726 54.76L176.478 38.296L169.23 54.76H183.726ZM202.219 37.576H190.699V33.4H218.491V37.576H206.971V67H202.219V37.576ZM236.354 67.384C232.994 67.384 229.954 66.648 227.234 65.176C224.546 63.672 222.434 61.624 220.898 59.032C219.362 56.408 218.594 53.464 218.594 50.2C218.594 46.936 219.362 44.008 220.898 41.416C222.434 38.792 224.562 36.744 227.282 35.272C230.002 33.768 233.042 33.016 236.402 33.016C239.026 33.016 241.426 33.464 243.602 34.36C245.778 35.224 247.634 36.52 249.17 38.248L246.05 41.272C243.522 38.616 240.37 37.288 236.594 37.288C234.098 37.288 231.842 37.848 229.826 38.968C227.81 40.088 226.226 41.64 225.074 43.624C223.954 45.576 223.394 47.768 223.394 50.2C223.394 52.632 223.954 54.84 225.074 56.824C226.226 58.776 227.81 60.312 229.826 61.432C231.842 62.552 234.098 63.112 236.594 63.112C240.338 63.112 243.49 61.768 246.05 59.08L249.17 62.104C247.634 63.832 245.762 65.144 243.554 66.04C241.378 66.936 238.978 67.384 236.354 67.384ZM282.993 33.4V67H278.193V52.024H258.897V67H254.097V33.4H258.897V47.848H278.193V33.4H282.993ZM333.253 67L333.205 42.52L321.061 62.92H318.853L306.709 42.664V67H302.101V33.4H306.037L320.053 57.016L333.877 33.4H337.813L337.861 67H333.253ZM367.433 58.6H349.577L345.881 67H340.937L356.153 33.4H360.905L376.169 67H371.129L367.433 58.6ZM365.753 54.76L358.505 38.296L351.257 54.76H365.753ZM392.365 33.4C396.717 33.4 400.141 34.44 402.637 36.52C405.133 38.6 406.381 41.464 406.381 45.112C406.381 48.76 405.133 51.624 402.637 53.704C400.141 55.784 396.717 56.824 392.365 56.824H384.061V67H379.261V33.4H392.365ZM392.221 52.648C395.261 52.648 397.581 52.008 399.181 50.728C400.781 49.416 401.581 47.544 401.581 45.112C401.581 42.68 400.781 40.824 399.181 39.544C397.581 38.232 395.261 37.576 392.221 37.576H384.061V52.648H392.221Z" fill="#1F1E1E"/>
<path class="icon" d="M30.4863 67.9485V79.1666" stroke="#1F1E1E" stroke-width="4" stroke-linecap="square"/>
<path class="icon" d="M21.3682 79.1666H39.6057" stroke="#1F1E1E" stroke-width="4" stroke-linecap="square"/>
<path class="icon" d="M30.4869 20.8333C34.4352 20.8337 38.3237 21.7711 41.8142 23.5639C45.3048 25.3567 48.2922 27.9506 50.5162 31.1203C52.7406 34.29 54.1343 37.9395 54.5765 41.7516C55.019 45.5637 54.4964 49.423 53.0546 52.9945C51.6125 56.5656 49.2948 59.7407 46.3026 62.2438C43.3107 64.7469 39.7346 66.5018 35.8853 67.3564C32.0364 68.2113 28.0308 68.1395 24.2167 67.1482C20.4026 66.1565 16.8954 64.2747 14 61.6666" stroke="#1F1E1E" stroke-width="4" stroke-linecap="square"/>
<path class="icon" d="M30.4853 58.9792C38.7772 58.9792 45.4992 52.4479 45.4992 44.3912C45.4992 36.3343 38.7772 29.803 30.4853 29.803C22.1932 29.803 15.4712 36.3343 15.4712 44.3912C15.4712 52.4479 22.1932 58.9792 30.4853 58.9792Z" stroke="#1F1E1E" stroke-width="4" stroke-linecap="square"/>
</svg>

<svg xmlns="http://www.w3.org/2000/svg" fill="none" viewBox="0 0 423 100"><path fill="#1f1e1e" d="M80.175 67.384q-3.792 0-7.344-1.152-3.504-1.2-5.52-3.072l1.776-3.744q1.92 1.728 4.896 2.832a18.7 18.7 0 0 0 6.192 1.056q4.176 0 6.24-1.392 2.064-1.44 2.064-3.792 0-1.728-1.152-2.784-1.104-1.104-2.784-1.68-1.632-.576-4.656-1.296-3.792-.912-6.144-1.824a10.5 10.5 0 0 1-3.984-2.784q-1.632-1.92-1.632-5.136 0-2.688 1.392-4.848 1.44-2.16 4.32-3.456t7.152-1.296q2.976 0 5.856.768t4.944 2.208l-1.584 3.84a16.8 16.8 0 0 0-4.512-2.016q-2.4-.72-4.704-.72-4.08 0-6.144 1.488-2.016 1.488-2.016 3.84 0 1.728 1.152 2.832 1.152 1.056 2.832 1.68 1.728.576 4.656 1.248 3.792.912 6.096 1.824a10.06 10.06 0 0 1 3.936 2.784q1.68 1.872 1.68 5.04 0 2.64-1.44 4.848-1.44 2.16-4.368 3.456-2.928 1.248-7.2 1.248m33.124 0q-5.04 0-9.12-2.208-4.032-2.256-6.336-6.144-2.304-3.936-2.304-8.832t2.304-8.784q2.304-3.936 6.384-6.144 4.08-2.256 9.12-2.256 3.936 0 7.2 1.344a14.5 14.5 0 0 1 5.568 3.888l-3.12 3.024q-3.792-3.984-9.456-3.984-3.744 0-6.768 1.68a12.3 12.3 0 0 0-4.752 4.656q-1.68 2.928-1.68 6.576t1.68 6.624q1.728 2.928 4.752 4.608t6.768 1.68q5.616 0 9.456-4.032l3.12 3.024q-2.304 2.592-5.616 3.936-3.264 1.344-7.2 1.344M153.507 67l-7.248-10.32q-1.344.096-2.112.096h-8.304V67h-4.8V33.4h13.104q6.528 0 10.272 3.12t3.744 8.592q0 3.888-1.92 6.624t-5.472 3.984L158.739 67zm-9.504-14.304q4.56 0 6.96-1.968t2.4-5.616-2.4-5.568q-2.4-1.968-6.96-1.968h-8.16v15.12zm41.403 5.904H167.55l-3.696 8.4h-4.944l15.216-33.6h4.752L194.142 67h-5.04zm-1.68-3.84-7.248-16.464-7.248 16.464zm18.493-17.184h-11.52V33.4h27.792v4.176h-11.52V67h-4.752zm34.135 29.808q-5.04 0-9.12-2.208-4.032-2.256-6.336-6.144-2.304-3.936-2.304-8.832t2.304-8.784q2.304-3.936 6.384-6.144 4.08-2.256 9.12-2.256 3.936 0 7.2 1.344a14.5 14.5 0 0 1 5.568 3.888l-3.12 3.024q-3.792-3.984-9.456-3.984-3.744 0-6.768 1.68a12.3 12.3 0 0 0-4.752 4.656q-1.68 2.928-1.68 6.576t1.68 6.624q1.728 2.928 4.752 4.608t6.768 1.68q5.616 0 9.456-4.032l3.12 3.024q-2.304 2.592-5.616 3.936-3.264 1.344-7.2 1.344M282.993 33.4V67h-4.8V52.024h-19.296V67h-4.8V33.4h4.8v14.448h19.296V33.4zm50.26 33.6-.048-24.48-12.144 20.4h-2.208l-12.144-20.256V67h-4.608V33.4h3.936l14.016 23.616L333.877 33.4h3.936l.048 33.6zm34.18-8.4h-17.856l-3.696 8.4h-4.944l15.216-33.6h4.752L376.169 67h-5.04zm-1.68-3.84-7.248-16.464-7.248 16.464zm26.612-21.36q6.528 0 10.272 3.12t3.744 8.592-3.744 8.592-10.272 3.12h-8.304V67h-4.8V33.4zm-.144 19.248q4.56 0 6.96-1.92 2.4-1.968 2.4-5.616t-2.4-5.568q-2.4-1.968-6.96-1.968h-8.16v15.072z" class="logo"/><path stroke="#1f1e1e" stroke-linecap="square" stroke-width="4" d="M30.486 67.949v11.218M21.368 79.167h18.238M30.487 20.833c3.948 0 7.837.938 11.327 2.73a24 24 0 0 1 8.702 7.557 23.15 23.15 0 0 1 4.06 10.632 22.94 22.94 0 0 1-1.521 11.243 23.6 23.6 0 0 1-6.752 9.249 24.5 24.5 0 0 1-10.418 5.112 24.9 24.9 0 0 1-11.668-.208A24.46 24.46 0 0 1 14 61.667" class="icon"/><path stroke="#1f1e1e" stroke-linecap="square" stroke-width="4" d="M30.485 58.98c8.292 0 15.014-6.532 15.014-14.589s-6.722-14.588-15.014-14.588-15.014 6.531-15.014 14.588S22.193 58.98 30.485 58.98Z" class="icon"/></svg>
